!!!OTL: Liebeslied der Wandernden.
!!!OTL-incipit: DAS LIEBEN MACHT GROSS' FREUD
!!!ARE: Europa, Mitteleuropa, Deutschland, Lothringen
!!!SCT: Z1160
!!!TXL: @@DE
!!!YEM: Copyright 1995, estate of Helmut Schaffrath.
**kern	**text
*ICvox	*
*M4/4	*
*met(c)	*
*k[f#]	*
*G:	*
!LO:TX:a:t=Lotharingen.	!
{4d	Das
=1	=1
4.g	Lie-
8a	-ben
4b/	macht
4cc/	groß'
=2	=2
2dd/	Freud',
4r}	.
{8gL	es
8bJ	.
=3	=3
4dd/	wiſ-
4dd/	-ſen's
4cc/	vie-
4cc/	-le
=4	=4
2b/	Leut';
4r}	.
{4g	weiß
=5	=5
4b/	mir
4dd/	ein,
4dd/	ſchwarʒbraun
4ee/	.
=6	=6
4dd/	Mäg-
4cc/	-de-
4cc/}	-lein,
{4dd/	weiß
=7	=7
4b/	mir
4b/	ein
4b/	ſchwarʒbraun
4dd/	.
=8	=8
4b/	Mäg-
8aL	-de-
8gJ	.
4a}	-lein,
{8gL	das
8aJ	.
=9	=9
2.b/	mir,
8ccL	das
8eeJ	.
=10	=10
2.dd/}	mir,
{8gL	das
8bJ	.
=11	=11
4dd/	mir
4dd/	mein
4cc/	Herʒ
4cc/	er-
=12	=12
2b/	-freut!
4r}	.
==	==
!!!AGN: Liebes - Lied, Abschieds - Lied
!!!ONB: ESAC (Essen Associative Code) Database: ZUCCAL
!!!AMT: simple quadruple
!!!AIN: vox
!!!EED: Helmut Schaffrath
!!!EEV: 1.0
!!!GTL: V. Lieder der Minne.
!!!URL-scan: https://www.digitale-sammlungen.de/de/view/bsb11160573?page=343
!!!ENC: Anna Maria Matuszewska
!!!EEV: 2025/02/05
*-	*-
